X:42
T:What the Hull?  (Regular version)
C:Taz Tarry October 1988
M:4/4
L:1/8
K:G
Q:1/4=140
a>b ag ed (3efg|a>b ag ed e2|a>b ag ed ef|GA Bd ed (3efg|a>b ag ed (3efg|a>b ag ed e2|a>b ag ed ef| GA Bd ed (3efg ||
GA BG AB dA|GA BG BA A2 | GA BG AB dA| Bd ed ef g2|
GA BG AB dA|GA BG BA A2 |GA BG AB dA|  Bd ed (3efg a2|]

